!!!OTL: Der geistliche Ackermann
!!!ARE: Europa, Mitteleuropa, Deutschland
!!!SCT: A0588
!!!YEM: Copyright 1995, estate of Helmut Schaffrath.
**kern
*ICvox
*Ivox
!! Mixed meters:  4/2; 6/2
*M4/2
*k[b-e-]
*g:
{2g
=1
2g
2a
2b-
2cc
=2
*M6/2
2b-
2a
1g
2r}
{2g
=3
3b-
3b-
3cc
1.5dd
3a
=4
2b-
2cc
1dd
2r}
{2dd
=5
3ffn
3dd
3ffn
3dd
3dd
3cc
=6
1b-
1a
2r}
{2fn
=7
1b-
2cc
1a
2g
=8
1b-
2cc
1dd}
{2cc
=9
2b-
2a
2g
2a
2b-
2b-
=10
1a
1.g}
==
!!!AGN: Romanze, Ballade, Lied, religioeses Lied
!! Beuttner 1602 II No. 39.
!!!ONB: ESAC (Essen Associative Code) Database: ALTDEU
!!!AMT: irregular
!!!AIN: vox
!!!EED: Helmut Schaffrath
!!!EEV: 1.0
*-
